svgs/1F499.svg

<svg xmlns="http://www.w3.org/2000/svg" xmlns:xlink="http://www.w3.org/1999/xlink" preserveAspectRatio="none" viewBox="0 0 72 72"><defs><path id="a" fill="#FFF" d="M32.2 23.9q-.25-1.9-1.05-2.85-.35-.4-1.1-.9-.8-.55-1.1-.8-.45-.4-.9-1.15-.45-.8-.7-1.25-1.55-2.6-3.55-4.55-2.3-2.35-4.65-2.85-1.95-.3-4.15.45-2.6.95-4.45 2.85-1.95 1.95-2.6 4.5-.05.45-.25 1.3-.15.75-.4 1.25-.25.65-1.1 1.8-1.6 2.45-1.55 6.45 0 3.4 1.25 5.9.95 2.1 3.7 4.9 3.35 3.3 7.15 5.85 4.65 3.15 8.05 2.7 2.6-.4 4.55-2.7 1.8-2.15 2.2-5 .2-1.45.5-1.95.25-.45.8-.95.8-.65.95-.85 1.05-1.15 1-3.05-.05-1.6-.9-3.3-.45-.85-.65-1.3-.4-.8-.6-1.35-.1-.4-.45-3.15m-9.1 14.7q-.1.1-.35 0-1.9-1-2.6-1.7 1.45.35 3.3.7 0 .1-.2.8-.05.15-.15.2z"/><path id="b" fill="#37B4E2" d="M64.05 12.15Q59 7.05 51.9 7.05q-5.3 0-9.6 2.95-4.25 2.85-6.2 7.65-2-4.8-6.25-7.65-4.3-2.95-9.6-2.95-7.1 0-12.1 5.1-5.05 5.1-5.05 12.3 0 8.9 5.5 15.65 3.35 4.1 12 10.25 5.55 3.95 8 6.15 4.15 3.65 6.2 7.5l.15.4q.3.7 1.1.7h.05q.65 0 1.1-.75.1-.15.1-.25 2.05-3.85 6.2-7.55 2.55-2.3 8.05-6.2Q60.2 44.2 63.5 40.1q5.55-6.75 5.55-15.65 0-7.2-5-12.3z"/></defs><use xlink:href="#a"/><use xlink:href="#b"/></svg>

<svg xmlns="http://www.w3.org/2000/svg" version="1.1" xmlns:xlink="http://www.w3.org/1999/xlink" preserveAspectRatio="none" x="0px" y="0px" width="72px" height="72px" viewBox="0 0 72 72">
<defs>
<g id="Layer1_0_FILL">
<path fill="#FFFFFF" stroke="none" d="
M 32.2 23.9
Q 31.95 22 31.15 21.05 30.8 20.65 30.05 20.15 29.25 19.6 28.95 19.35 28.5 18.95 28.05 18.2 27.6 17.4 27.35 16.95 25.8 14.35 23.8 12.4 21.5 10.05 19.15 9.55 17.2 9.25 15 10 12.4 10.95 10.55 12.85 8.6 14.8 7.95 17.35 7.9 17.8 7.7 18.65 7.55 19.4 7.3 19.9 7.05 20.55 6.2 21.7 4.6 24.15 4.65 28.15 4.65 31.55 5.9 34.05 6.85 36.15 9.6 38.95 12.95 42.25 16.75 44.8 21.4 47.95 24.8 47.5 27.4 47.1 29.35 44.8 31.15 42.65 31.55 39.8 31.75 38.35 32.05 37.85 32.3 37.4 32.85 36.9 33.65 36.25 33.8 36.05 34.85 34.9 34.8 33 34.75 31.4 33.9 29.7 33.45 28.85 33.25 28.4 32.85 27.6 32.65 27.05 32.55 26.65 32.2 23.9
M 23.1 38.6
Q 23 38.7 22.75 38.6 20.85 37.6 20.15 36.9 21.6 37.25 23.45 37.6 23.45 37.7 23.25 38.4 23.2 38.55 23.1 38.6 Z"/>
</g>

<g id="Layer1_1_FILL">
<path fill="#37B4E2" stroke="none" d="
M 64.05 12.15
Q 59 7.05 51.9 7.05 46.6 7.05 42.3 10 38.05 12.85 36.1 17.65 34.1 12.85 29.85 10 25.55 7.05 20.25 7.05 13.15 7.05 8.15 12.15 3.1 17.25 3.1 24.45 3.1 33.35 8.6 40.1 11.95 44.2 20.6 50.35 26.15 54.3 28.6 56.5 32.75 60.15 34.8 64
L 34.95 64.4
Q 35.25 65.1 36.05 65.1
L 36.1 65.1
Q 36.75 65.1 37.2 64.35 37.3 64.2 37.3 64.1 39.35 60.25 43.5 56.55 46.05 54.25 51.55 50.35 60.2 44.2 63.5 40.1 69.05 33.35 69.05 24.45 69.05 17.25 64.05 12.15 Z"/>
</g>
</defs>

<g id="Layer_1">
<g transform="matrix( 1, 0, 0, 1, 0,0) ">
<use xlink:href="#Layer1_0_FILL"/>
</g>

<g transform="matrix( 1, 0, 0, 1, 0,0) ">
<use xlink:href="#Layer1_1_FILL"/>
</g>
</g>

<g id="Camada_2"/>
</svg>
